storage/app/icons/phosphoricons/bold/bag-bold.svg

<svg xmlns="http://www.w3.org/2000/svg" fill="currentColor" viewBox="0 0 256 256"><path d="M216 60h-36.17a52 52 0 0 0-103.66 0H40a20 20 0 0 0-20 20v120a20 20 0 0 0 20 20h176a20 20 0 0 0 20-20V80a20 20 0 0 0-20-20m-88-24a28 28 0 0 1 27.71 24h-55.42A28 28 0 0 1 128 36m84 160H44V84h32v12a12 12 0 0 0 24 0V84h56v12a12 12 0 0 0 24 0V84h32Z"/></svg>

<svg xmlns="http://www.w3.org/2000/svg" viewBox="0 0 256 256" fill="currentColor"><path d="M216,60H179.83A52,52,0,0,0,76.17,60H40A20,20,0,0,0,20,80V200a20,20,0,0,0,20,20H216a20,20,0,0,0,20-20V80A20,20,0,0,0,216,60ZM128,36a28,28,0,0,1,27.71,24H100.29A28,28,0,0,1,128,36Zm84,160H44V84H76V96a12,12,0,0,0,24,0V84h56V96a12,12,0,0,0,24,0V84h32Z"/></svg>
